data/icons/pub-symbolic.svg

<?xml version="1.0" encoding="UTF-8"?>
<svg height="16px" viewBox="0 0 16 16" width="16px" xmlns="http://www.w3.org/2000/svg" xmlns:xlink="http://www.w3.org/1999/xlink">
    <filter id="a" height="100%" width="100%" x="0%" y="0%">
        <feColorMatrix in="SourceGraphic" type="matrix" values="0 0 0 0 1 0 0 0 0 1 0 0 0 0 1 0 0 0 1 0"/>
    </filter>
    <mask id="b">
        <g filter="url(#a)">
            <path d="m 0 0 h 16 v 16 h -16 z" fill-opacity="0.3"/>
        </g>
    </mask>
    <clipPath id="c">
        <path d="m 0 0 h 1024 v 800 h -1024 z"/>
    </clipPath>
    <mask id="d">
        <g filter="url(#a)">
            <path d="m 0 0 h 16 v 16 h -16 z" fill-opacity="0.05"/>
        </g>
    </mask>
    <clipPath id="e">
        <path d="m 0 0 h 1024 v 800 h -1024 z"/>
    </clipPath>
    <mask id="f">
        <g filter="url(#a)">
            <path d="m 0 0 h 16 v 16 h -16 z" fill-opacity="0.05"/>
        </g>
    </mask>
    <clipPath id="g">
        <path d="m 0 0 h 1024 v 800 h -1024 z"/>
    </clipPath>
    <mask id="h">
        <g filter="url(#a)">
            <path d="m 0 0 h 16 v 16 h -16 z" fill-opacity="0.05"/>
        </g>
    </mask>
    <clipPath id="i">
        <path d="m 0 0 h 1024 v 800 h -1024 z"/>
    </clipPath>
    <mask id="j">
        <g filter="url(#a)">
            <path d="m 0 0 h 16 v 16 h -16 z" fill-opacity="0.05"/>
        </g>
    </mask>
    <clipPath id="k">
        <path d="m 0 0 h 1024 v 800 h -1024 z"/>
    </clipPath>
    <mask id="l">
        <g filter="url(#a)">
            <path d="m 0 0 h 16 v 16 h -16 z" fill-opacity="0.05"/>
        </g>
    </mask>
    <clipPath id="m">
        <path d="m 0 0 h 1024 v 800 h -1024 z"/>
    </clipPath>
    <mask id="n">
        <g filter="url(#a)">
            <path d="m 0 0 h 16 v 16 h -16 z" fill-opacity="0.05"/>
        </g>
    </mask>
    <clipPath id="o">
        <path d="m 0 0 h 1024 v 800 h -1024 z"/>
    </clipPath>
    <mask id="p">
        <g filter="url(#a)">
            <path d="m 0 0 h 16 v 16 h -16 z" fill-opacity="0.3"/>
        </g>
    </mask>
    <clipPath id="q">
        <path d="m 0 0 h 1024 v 800 h -1024 z"/>
    </clipPath>
    <mask id="r">
        <g filter="url(#a)">
            <path d="m 0 0 h 16 v 16 h -16 z" fill-opacity="0.5"/>
        </g>
    </mask>
    <clipPath id="s">
        <path d="m 0 0 h 1024 v 800 h -1024 z"/>
    </clipPath>
    <mask id="t">
        <g filter="url(#a)">
            <path d="m 0 0 h 16 v 16 h -16 z" fill-opacity="0.4"/>
        </g>
    </mask>
    <clipPath id="u">
        <path d="m 0 0 h 1024 v 800 h -1024 z"/>
    </clipPath>
    <mask id="v">
        <g filter="url(#a)">
            <path d="m 0 0 h 16 v 16 h -16 z" fill-opacity="0.4"/>
        </g>
    </mask>
    <clipPath id="w">
        <path d="m 0 0 h 1024 v 800 h -1024 z"/>
    </clipPath>
    <mask id="x">
        <g filter="url(#a)">
            <path d="m 0 0 h 16 v 16 h -16 z" fill-opacity="0.5"/>
        </g>
    </mask>
    <clipPath id="y">
        <path d="m 0 0 h 1024 v 800 h -1024 z"/>
    </clipPath>
    <mask id="z">
        <g filter="url(#a)">
            <path d="m 0 0 h 16 v 16 h -16 z" fill-opacity="0.5"/>
        </g>
    </mask>
    <clipPath id="A">
        <path d="m 0 0 h 1024 v 800 h -1024 z"/>
    </clipPath>
    <g clip-path="url(#c)" mask="url(#b)" transform="matrix(1 0 0 1 -640 -100)">
        <path d="m 562.460938 212.058594 h 10.449218 c -1.183594 0.492187 -1.296875 2.460937 0 3 h -10.449218 z m 0 0" fill="#2e3436"/>
    </g>
    <g fill="#2e3436">
        <path d="m 3 4 v 7.519531 c 0 1.375 1.105469 2.480469 2.480469 2.480469 h 4.039062 c 1.207031 0 2.207031 -0.855469 2.429688 -2 h 0.257812 c 1.53125 0 2.792969 -1.261719 2.792969 -2.792969 v -2.414062 c 0 -1.53125 -1.261719 -2.792969 -2.792969 -2.792969 h -5.207031 v 3.5 c 0 0.832031 -0.667969 1.5 -1.5 1.5 s -1.5 -0.667969 -1.5 -1.5 v -3.5 z m 9 2 h 0.207031 c 0.457031 0 0.792969 0.335938 0.792969 0.792969 v 2.414062 c 0 0.457031 -0.335938 0.792969 -0.792969 0.792969 h -0.207031 z m 0 0"/>
        <path d="m 1 15 h 14 v 1 h -14 z m 0 0"/>
        <path d="m 4.296875 1 c -1.109375 0 -2 0.890625 -2 2 h 2.703125 v 4.5 c 0 0.277344 0.222656 0.5 0.5 0.5 s 0.5 -0.222656 0.5 -0.5 v -4.5 h 6.019531 c -0.34375 -0.597656 -0.980469 -1 -1.722656 -1 c -0.414063 0 -0.800781 0.125 -1.121094 0.339844 c -0.269531 -0.78125 -1.003906 -1.339844 -1.878906 -1.339844 c -0.601563 0 -1.132813 0.269531 -1.5 0.6875 c -0.367187 -0.417969 -0.898437 -0.6875 -1.5 -0.6875 z m 0 0"/>
    </g>
    <g clip-path="url(#e)" mask="url(#d)" transform="matrix(1 0 0 1 -640 -100)">
        <path d="m 16 632 h 1 v 1 h -1 z m 0 0" fill="#2e3436" fill-rule="evenodd"/>
    </g>
    <g clip-path="url(#g)" mask="url(#f)" transform="matrix(1 0 0 1 -640 -100)">
        <path d="m 17 631 h 1 v 1 h -1 z m 0 0" fill="#2e3436" fill-rule="evenodd"/>
    </g>
    <g clip-path="url(#i)" mask="url(#h)" transform="matrix(1 0 0 1 -640 -100)">
        <path d="m 18 634 h 1 v 1 h -1 z m 0 0" fill="#2e3436" fill-rule="evenodd"/>
    </g>
    <g clip-path="url(#k)" mask="url(#j)" transform="matrix(1 0 0 1 -640 -100)">
        <path d="m 16 634 h 1 v 1 h -1 z m 0 0" fill="#2e3436" fill-rule="evenodd"/>
    </g>
    <g clip-path="url(#m)" mask="url(#l)" transform="matrix(1 0 0 1 -640 -100)">
        <path d="m 17 635 h 1 v 1 h -1 z m 0 0" fill="#2e3436" fill-rule="evenodd"/>
    </g>
    <g clip-path="url(#o)" mask="url(#n)" transform="matrix(1 0 0 1 -640 -100)">
        <path d="m 19 635 h 1 v 1 h -1 z m 0 0" fill="#2e3436" fill-rule="evenodd"/>
    </g>
    <g clip-path="url(#q)" mask="url(#p)" transform="matrix(1 0 0 1 -640 -100)">
        <path d="m 136 660 v 7 h 7 v -7 z m 0 0" fill="#2e3436"/>
    </g>
    <g clip-path="url(#s)" mask="url(#r)" transform="matrix(1 0 0 1 -640 -100)">
        <path d="m 199 642 h 3 v 12 h -3 z m 0 0" fill="#2e3436"/>
    </g>
    <g clip-path="url(#u)" mask="url(#t)" transform="matrix(1 0 0 1 -640 -100)">
        <path d="m 209.5 144.160156 c 0.277344 0 0.5 0.222656 0.5 0.5 v 1 c 0 0.277344 -0.222656 0.5 -0.5 0.5 s -0.5 -0.222656 -0.5 -0.5 v -1 c 0 -0.277344 0.222656 -0.5 0.5 -0.5 z m 0 0" fill="#2e3436"/>
    </g>
    <g clip-path="url(#w)" mask="url(#v)" transform="matrix(1 0 0 1 -640 -100)">
        <path d="m 206.5 144.160156 c 0.277344 0 0.5 0.222656 0.5 0.5 v 1 c 0 0.277344 -0.222656 0.5 -0.5 0.5 s -0.5 -0.222656 -0.5 -0.5 v -1 c 0 -0.277344 0.222656 -0.5 0.5 -0.5 z m 0 0" fill="#2e3436"/>
    </g>
    <g clip-path="url(#y)" mask="url(#x)" transform="matrix(1 0 0 1 -640 -100)">
        <path d="m 229.5 143.160156 c -0.546875 0 -1 0.457032 -1 1 c 0 0.546875 0.453125 1 1 1 s 1 -0.453125 1 -1 c 0 -0.542968 -0.453125 -1 -1 -1 z m 0 0" fill="#2e3436"/>
    </g>
    <g clip-path="url(#A)" mask="url(#z)" transform="matrix(1 0 0 1 -640 -100)">
        <path d="m 226.453125 143.160156 c -0.519531 0 -0.953125 0.433594 -0.953125 0.953125 v 0.09375 c 0 0.519531 0.433594 0.953125 0.953125 0.953125 h 0.09375 c 0.519531 0 0.953125 -0.433594 0.953125 -0.953125 v -0.09375 c 0 -0.519531 -0.433594 -0.953125 -0.953125 -0.953125 z m 0 0" fill="#2e3436"/>
    </g>
</svg>

<svg height="16" width="16" xmlns="http://www.w3.org/2000/svg"><path style="fill:#2e3436" d="M7.262.996a1.982 1.982 0 0 0-1.465.692A1.99 1.99 0 0 0 4.297 1c-1.11 0-2 .89-2 2H5v4.5a.499.499 0 1 0 1 0V3h6.02c-.344-.598-.98-1-1.723-1-.414 0-.8.125-1.121.34A1.982 1.982 0 0 0 7.262.996zM3 4v7.52A2.474 2.474 0 0 0 5.48 14h4.04a2.47 2.47 0 0 0 2.43-2h.257A2.808 2.808 0 0 0 15 9.207V6.793A2.808 2.808 0 0 0 12.207 4H7v3.5C7 8.332 6.332 9 5.5 9S4 8.332 4 7.5V4H3zm9 2h.207a.77.77 0 0 1 .793.793v2.414a.77.77 0 0 1-.793.793H12V6zM1 15v1h14v-1H1z"/></svg>
